public/resource/img/game/theme/konosuba/logo.svg

<?xml version="1.0" standalone="yes"?>
<svg xmlns="http://www.w3.org/2000/svg" width="390" height="95">
<path style="fill: #fff" d="M344 2L344.611 4.05556L344.861 5.05556L345.139 6L345.361 7L345.639 8L345.861 9L346.139 10L346.639 12L346.861 13L347.139 14L347.639 16L347.861 17L348.139 18L348.611 20L348.806 21L349.194 23L349.389 24L349.861 26L350.139 27L350.361 28L350.611 29L350.806 30L351.194 32L351.389 33L351.861 35L352.139 36L352.361 37L352.611 38L352.806 39L353 40L353.417 42L353.694 43L354.306 45L354.583 46L354.806 47L355.194 49L355.389 50L355.639 51L355.861 52L356.139 53L356.611 55L356.806 56L357.194 58L357.694 60L358.306 62L358.583 63L358.917 64.9444L359 66.5L359 68L359.75 67.2222L359.833 66.6944L360.167 65.8889L360.611 64L360.917 62L361.083 60L361.389 58L361.611 57L361.917 55L361.972 54L362.083 52L362.389 50L362.806 48L363.194 46L363.389 45L363.611 44L363.806 43L364.194 41L364.389 40L364.778 38L364.917 37L365.028 35L365.083 34L365.389 32L365.611 31L365.806 30L366.194 28L366.389 27L366.778 25L366.917 24L366.972 23L367.083 21L367.222 20L367.611 18L367.806 17L368.194 15L368.389 14L368.611 13L368.917 11L368.972 10.0556L369 9.05556L369 7L366.944 6.41666L365 6L363 5.61111L362 5.38889L360 5.05556L359 4.94444L357 4.61111L355 4.19444L353 3.80556L352 3.61111L351 3.38889L350 3.19444L348 2.80556L347.056 2.61111L345.5 2.25L344 2M287 4L285.5 4.80556L284.944 4.97222L283.944 5.33334L282 5.80556L280 6.19444L278.056 6.61111L277.5 6.75L276 7L276 14L276 16L276.028 17L276.083 18L276.389 20L276.611 21L276.917 23L276.972 24L277 26L277 27L277 33L277 49L277 54L277 56L277 57L277.083 59L277.222 60L277.611 62L277.917 64L277.972 65L278 67L278 69L278 76L283 76L285 76L286.972 75.9722L287.889 75.8889L288.667 75.7222L289.639 75.1389L290 74L291.5 74.25L293.056 74.6111L295 74.8333L296 74.75L298 74.3611L300 73.8333L301 73.5278L303 72.5L304 71.75L304.972 70.9167L305.917 69.9722L307.528 68L308.722 66L309.139 65L309.833 63L310.139 62L310.361 61L310.611 60L310.917 58L310.972 57L311 56L311 54L311 51L311 50L310.972 48L310.917 47L310.611 45L310.389 44L310 42L309.583 40L309.306 39L308.583 37L307.5 35.0278L306.75 34.0833L304.972 32.5L303 31.5L301 31.0833L299 31L298 31L296 31.0833L294 31.4167L293 31.6944L291.056 32.3056L290.056 32.5833L289.5 32.75L288 33L288 13L288 10L288 9L287.972 7.02778L287.944 6.11111L287.75 5.30556L287.722 4.77778L287 4M26 12L25 13L25 81L39 81L39 66L39 63L39 62L39.1111 60L39.7222 58L40.3333 57L41.1111 56L43 54L44.9444 52.0556L48 49L48.0833 50.5L48.4167 52.0556L48.6944 53L49.3056 55L49.6111 56L50.1389 58L50.3889 59L50.6944 60L51.3056 62L51.6111 63L52.1389 65L52.3889 66L52.6944 67L53.3056 69L53.6111 70L54.1389 72L54.3889 73L54.6944 74L55.3056 76L55.6111 77L55.8611 78L56.3889 79.9444L57 82L69 82L68.9722 80.5L68.7778 78.9444L68.6111 78L68.1389 76L67.8611 75L67.6111 74L67.3056 73L66.6944 71L66.3889 70L65.8611 68L65.6111 67L65.3056 66L64.6944 64L64.3889 63L63.8611 61L63.6389 60L63.3889 59L63 57L62.7778 56L62.5278 55L61.8333 53L61.4444 52L60.8611 50L60.6389 49L60.3611 48L60.1389 47L59.6111 45L59.3056 44L58.7778 42L58.6667 41L58.7222 40L59.5278 38L60.25 37L61.0833 36L63 34L65 32L66.9167 30L67.7778 29L68.6111 28L70.2222 26L72 24L72.8889 23.0556L73.6944 22.0556L74.2222 21.5L75 20L73.5 19.0278L72.9444 18.8333L71.9444 18.3611L71 18.0278L70 17.6667L69 17.3333L67 16.6111L65.0556 15.8056L64.5 15.5L63 15L60.9444 17.0556L59.9444 18.0556L58 19.9722L57 20.9167L55 22.6111L54 23.3889L52 25.0833L51 26.0278L49 28L47 30L39 38L39 10L37.5 10L36.9444 10.0278L35 10.2222L34 10.4167L33 10.6944L32 11L30 11.5833L29.0556 11.7778L27.5 11.9722L26 12M317 26L317.278 27.5L317.472 28.0556L318.194 30L319 31.9444L319.194 32.5L320 34L321.5 33.9167L322.056 33.7778L323.056 33.6111L324 33.3889L326 33.0833L327 33.0556L328 33.0833L329.944 33.3889L331.5 33.75L333 34L333 41L331.5 41.0278L329.944 41.25L329 41.4722L327 42.1944L326 42.6389L324 43.5556L323 44.0833L321 45.4167L319.083 47.0833L317.472 49L316.861 50L316.278 51L315.861 52L315.167 54L314.861 55L314.389 57L314.083 59L314.028 60L314 62L314 64L314.028 65L314.083 66L314.472 68L315.278 70L316.472 71.9722L317.25 72.9167L319.028 74.5L321 75.5833L323 76.3056L324 76.5833L326 76.9167L328 77L329 77L331 77L344 77L344 45L344 40L344 38L344 37L343.972 35L343.917 34L343.583 32L343.278 31L342.889 30L341.694 28.0278L340.889 27.0833L339 25.5L337 24.4167L335 23.6944L334 23.4167L332 23.0833L330 23L328 23.0833L327 23.2222L325 23.6111L323 24L321 24.4722L319.056 25.1944L318.5 25.5L317 26M212 61L200 61L200.083 63.0556L200.472 65L201.278 67L202.472 69L203.25 69.9722L204.083 70.8889L206 72.3611L207 72.8889L208 73.3056L209 73.6667L210 74L212 74.5833L213 74.7778L214 74.9167L216 75L218 74.9722L219 74.9167L221 74.6111L222 74.3889L224 74L225 73.7778L226 73.5L228 72.5833L229.917 71.3056L231.5 69.7778L232.5 67.9722L232.917 66L232.972 65L233 63L233 62L232.917 60L232.75 59L232.5 58L231.5 56.0833L229.917 54.4167L228.972 53.6944L228 53.0278L226 51.8889L225 51.4167L224 51.0278L222 50.4167L220 50.0556L219 49.9444L218 49.75L217 49.5278L216 49.1389L215 48.7222L213 47.5278L211.111 45.9167L209.722 44L209.333 43.0556L209.028 41.5L209 40L211.056 39.2778L212.056 39.0833L213 38.9722L214.972 39.5833L216.667 41.0278L217.639 42.5L218 44L230 44L229.75 42.5L229.583 41.9444L229.306 40.9444L228.583 39L227.5 37L225.917 35.0278L224.972 34.0833L223 32.4722L222 31.8611L220 30.8611L219 30.4722L218 30.25L217 30.0833L215 30L214 30L213 30L211 30L210 30L208 30.0833L206 30.4722L205 30.8611L203 31.7778L201.083 32.8611L200.222 33.4722L198.722 35.0833L198.111 36.0278L197.639 37L197.111 39L197 41L197.028 43L197.083 44L197.472 46L197.861 47L198.278 48L199.472 49.9167L200.25 50.75L201.083 51.5278L203 52.7222L205 53.6111L206 53.9722L208 54.6111L210 55.1389L211 55.3889L212 55.6944L214 56.3333L216 57.1111L217 57.6389L217.972 58.3056L219.667 60.0278L220.556 62L220.556 63L220.25 63.9722L219.667 64.8889L218.889 65.6389L217.972 66.1667L216.028 66.1667L215.083 65.6389L213.5 64.0278L212.917 63.0556L212.528 62.5L212 61M124 31L122.5 31.7222L121.944 31.75L120.944 31.9444L119 32.0833L117.056 32.3889L115.5 32.75L114 33L114 45L114 49L114.028 51L114.083 52L114.389 54L114.611 55L114.917 57L114.972 58L115 60L115 64L115 76L127 76L127 64L127 60L127 59L126.972 57L126.917 56L126.611 54L126.389 53L126.083 51L126.028 50.0556L126 49.0556L126 47L127.5 46.75L129.056 46.3889L131 46.1667L133 46.5L134 46.9444L134.972 47.5L135.889 48.25L137.278 50.0278L137.972 52L138.389 54L138.611 55L138.944 57L139.056 58L139.389 60L139.611 61L139.917 63L139.972 64L140 66L140 68L140 76L153 76L152.389 73.9444L152.139 72.9444L151.861 72L151.389 70L151.194 69L150.806 67L150.389 65L150.083 63L149.917 61L149.611 59L149.361 58L149.139 57L148.861 56L148.639 55L148.222 53L148 51L147.75 49L147.528 48L147.167 47L146.361 45L145.361 43.0278L144.694 42.0833L142.972 40.5L142 39.9444L141 39.5L139 39.0833L137 39L136 39L134 39L132 39.0278L131 39.0833L129 39.3889L128.056 39.6111L127.056 39.7778L126.5 39.9167L125 40L125 36.9444L125 36L124.972 34.0278L124.944 33.1111L124.75 32.3056L124.722 31.7778L124 31M168 32.4722L167 32.8611L166 33.2778L165 33.8333L163 35.0278L161.028 36.4167L160.083 37.2222L159.222 38.0833L158.417 39.0278L157.694 40L156.389 42L155.833 43L154.861 45L154.444 46L154.167 47L153.639 49L153.389 50L153.083 52L153 54L153 55L153 56L153.083 58L153.389 60L153.639 61L154.139 63L154.389 64L155.083 66L156.083 68L157.417 70L158.222 70.9722L159.083 71.9167L161 73.5278L163 74.75L164 75.2222L166 76.1389L167 76.5278L169 76.9167L171 77L172 77L174 77L175 77L177 76.9167L178 76.7778L180 76.3056L182 75.6111L183 75.1667L184 74.7222L186 73.5278L188 71.9167L189.972 70L190.917 69L192.5 67L193.583 65L193.972 64L194.611 62L194.861 61L195.361 59L195.611 58L195.917 56L195.972 55L195.917 53L195.611 51L195.361 50L195.139 49L194.556 47L193.722 45L193.167 44L191.972 42L190.583 40.0278L189.778 39.0833L188.917 38.2222L187 36.6944L186 36.0278L185 35.3889L184 34.8333L182 33.7778L181 33.25L180 32.8611L179 32.4722L178 32.25L177 32.0833L175 32L174 32L173 32L172 32L170 32.0833L169 32.25L168 32.4722M235 34L235 36.0556L235 37.0556L235.028 39L235.083 40L235.389 42L235.611 43L235.917 45L236 47L236 49L236 50L236.028 52L236.083 53L236.389 55L236.611 56L236.917 58L236.972 59L237 61L237.028 62L237.083 63L237.389 65L237.639 66L237.889 67L238.694 68.9722L239.333 69.9167L241.028 71.5L242 72.0556L243 72.5L245 72.9167L247 72.9722L248 72.9167L250 72.6111L251 72.3889L253 72.0556L254 71.9444L255.944 71.5833L258 71L258.361 72.1389L259.333 72.7222L260.111 72.8889L262 73L264 73L269 73L269.083 71.5L269.222 70.9444L269.389 69.9444L269.611 69L269.917 67L269.972 66L270 64L270.028 62L270.083 61L270.389 59L270.611 58L270.917 56L270.972 55L271 53L271 52L271 50L271.083 48L271.389 46L271.611 45L271.917 43L271.972 42L272 41L272 39L272 34L260 34L260 37.0556L260 39L259.972 41L259.917 42L259.611 44L259.389 45L259.083 47L259 49L259 51L259 52L258.972 54L258.917 55L258.611 57L258.389 58L258.083 60L258.028 60.9444L258 61.9444L258 64L256.5 64.25L255.944 64.3889L254.944 64.6111L253 64.8889L251 64.6667L249.028 63.6667L248.111 62.8889L247.333 61.9722L246.722 61L246.333 60L246.028 58L246 57L246 55L246 53L246 50L246 48L246.028 47L246.083 46L246.389 44L246.611 43L246.917 41L246.972 40L247 38L247 37.0556L247 34L235 34M84 35.4167L82 36.0278L80 36.8333L79 37.2778L77 38.4722L76 39.25L74.0278 41.0278L73.0833 42L71.4167 44L70.0833 46L69.5556 47L68.6389 49L68.1944 50L67.4722 52L67.25 53L67.0833 54L67 56L67.0278 58L67.0833 59L67.3889 61L67.6389 62L68.1389 64L68.3889 65L69.0833 67L70.0833 69L70.7222 70L72.2222 72L74.0278 73.9167L75 74.75L76 75.5278L77 76.1389L78 76.75L79 77.2222L81 78.1667L82 78.6111L84 79.3056L85 79.5833L87 79.9167L88 79.9722L89 80L91 79.9167L93 79.6111L94 79.3889L96 79L97 78.7778L98 78.5L100 77.5278L101.972 76.1389L103.778 74.6111L105.306 72.9167L105.972 71.9722L107.167 70L107.722 69L108.611 67L108.972 66L109.583 64L109.917 62L110 60L110 59L110 58L109.972 56L109.917 55L109.611 53L109.139 51L108.833 50L108.556 49L108.139 48L107.222 46L106.139 44L105.528 43L103.917 41.0278L102.972 40.0833L101 38.4722L100 37.8611L98 36.7778L96 35.8611L95 35.4722L93 35.0833L91 35L90 35L89 35L88 35L86 35.0833L84 35.4167M289 62L289 52L289 48L289.028 46L289.333 44.0278L289.722 43.1111L290.333 42.3333L291.111 41.7222L293 41.1111L295 41.1111L296 41.3333L296.972 41.7222L298.694 43.1111L299.889 45L300.278 46L300.583 47L300.917 49L301 51L301 53L301 54L300.972 56L300.917 57L300.528 59L300.139 59.9722L299.722 60.9167L298.528 62.5L296.917 63.5L295 63.8889L294 63.8889L292.056 63.5556L291.056 63.1389L290.5 62.9722L289 62M172 42.25L174 42.0278L175 42.0278L176 42.0833L178 42.5L179.917 43.5L180.75 44.25L181.528 45.0833L182.722 47L183.528 49L183.75 50L183.917 51L184 53L184 54L183.917 56L183.75 57L183.528 58L183.139 59L182.722 60L181.528 61.9722L180.75 62.9167L178.972 64.5L178 65.0556L176 65.75L174 65.9722L173 65.9722L171 65.6667L170.028 65.2778L168.25 63.8889L166.917 62L166.417 61L165.694 59L165.417 58L165.083 56L165 54L165.083 52L165.472 50L165.861 49L166.778 47L167.25 46.0278L168.472 44.25L170.083 42.9444L172 42.25M87 44.25L89 44.1111L91 44.5L92.9167 45.5L94.5278 47.0833L95.1389 48.0278L96.2222 50L97.1389 52L97.5278 53L97.9167 55L97.9722 56L97.9167 58L97.6111 60L97.1111 62L96.3889 64L95.8889 64.9722L94.5833 66.75L92.9167 68.0556L91 68.75L89 68.9444L88 68.9167L86 68.5L84.0278 67.5L82.25 65.9167L81.4722 64.9722L80.8611 64L80.2778 63L79.4722 61L79.0833 59L79 57L79 56L79.0833 54L79.25 53L79.4722 52L79.8611 51L80.8611 49L81.4722 48.0278L83.0833 46.25L84.0278 45.5L86 44.5L87 44.25M334 50L334 52.0556L333.972 53.0556L333.917 54L333.611 56L333.389 57L333.083 59L333.028 60L333 61L333 63L333 69L331.5 69L329.944 68.9722L329 68.8889L327.028 68.2778L325.25 66.8889L324.5 65.9722L323.5 64L323.083 62L323.083 60L323.417 58L324.028 56L324.417 55L325.5 53.0278L327.083 51.3333L329 50.3333L330 50.1111L330.944 50.0278L331.944 50L334 50M354 74L353.5 75.5L353.167 76.0556L352.75 77.0556L352.25 78L351.472 79.9444L351.083 81.5L351 83L352.5 83.6944L353.056 84.0833L354.056 84.6944L356 85.8889L357 86.3333L358 86.5833L359 86.5833L361 85.9167L361.944 85.3889L362.944 84.8889L363.5 84.5278L365 84L364.972 82.5L364.778 80.9444L364.583 80L364.306 79L363.639 77.0556L363.167 76.0556L362.972 75.5L362 74L354 74z"/>
</svg>

<svg xmlns="http://www.w3.org/2000/svg" width="390" height="95"><path d="M344 2l.611 2.056.25 1 .278.944.222 1 .278 1 .222 1 .278 1 .5 2 .222 1 .278 1 .5 2 .222 1 .278 1 .472 2 .195 1 .388 2 .195 1 .472 2 .278 1 .222 1 .25 1 .195 1 .388 2 .195 1 .472 2 .278 1 .222 1 .25 1 .195 1 .194 1 .417 2 .277 1 .612 2 .277 1 .223 1 .388 2 .195 1 .25 1 .222 1 .278 1 .472 2 .195 1 .388 2 .5 2 .612 2 .277 1 .334 1.944L359 66.5V68l.75-.778.083-.528.334-.805.444-1.889.306-2 .166-2 .306-2 .222-1 .306-2 .055-1 .111-2 .306-2 .417-2 .388-2 .195-1 .222-1 .195-1 .388-2 .195-1 .389-2 .139-1 .111-2 .055-1 .306-2 .222-1 .195-1 .388-2 .195-1 .389-2 .139-1 .055-1 .111-2 .139-1 .389-2 .195-1 .388-2 .195-1 .222-1 .306-2 .055-.944.028-1V7l-2.056-.583L365 6l-2-.389-1-.222-2-.333-1-.112-2-.333-2-.417-2-.388-1-.195-1-.222-1-.195-2-.388-.944-.195-1.556-.361L344 2m-57 2l-1.5.806-.556.166-1 .361-1.944.473-2 .388-1.944.417-.556.139L276 7v9l.028 1 .055 1 .306 2 .222 1 .306 2 .055 1 .028 2v31l.083 2 .139 1 .389 2 .306 2 .055 1 .028 2v9h7l1.972-.028.917-.083.778-.167.972-.583L290 74l1.5.25 1.556.361 1.944.222 1-.083 2-.389 2-.528 1-.305 2-1.028 1-.75.972-.833.945-.945L307.528 68l1.194-2 .417-1 .694-2 .306-1 .222-1 .25-1 .306-2 .055-1 .028-1v-6l-.028-2-.055-1-.306-2-.222-1-.389-2-.417-2-.277-1-.723-2-1.083-1.972-.75-.945-1.778-1.583-1.972-1-2-.417-2-.083h-1l-2 .083-2 .334-1 .277-1.944.612-1 .277-.556.167-1.5.25V9l-.028-1.972-.028-.917-.194-.805-.028-.528L287 4M26 12l-1 1v68h14V62l.111-2 .611-2 .611-1 .778-1L43 54l1.944-1.944L48 49l.083 1.5.334 1.556.277.944.612 2 .305 1 .528 2 .25 1 .305 1 .612 2 .305 1 .528 2 .25 1 .305 1 .612 2 .305 1 .528 2 .25 1 .305 1 .612 2 .305 1 .25 1 .528 1.944L57 82h12l-.028-1.5-.194-1.556L68.61 78l-.472-2-.278-1-.25-1-.305-1-.612-2-.305-1-.528-2-.25-1-.305-1-.612-2-.305-1-.528-2-.222-1-.25-1L63 57l-.222-1-.25-1-.695-2-.389-1-.583-2-.222-1-.278-1-.222-1-.528-2-.305-1-.528-2-.111-1 .055-1 .806-2 .722-1 .833-1L63 34l2-2 1.917-2 .86-1 .834-1 1.611-2L72 24l.889-.944.805-1 .528-.556L75 20l-1.5-.972-.556-.195-1-.472-.944-.333-1-.361-1-.334-2-.722-1.944-.805-.556-.306L63 15l-2.056 2.056-1 1L58 19.972l-1 .945-2 1.694-1 .778-2 1.694-1 .945L49 28l-2 2-8 8V10h-1.5l-.556.028-1.944.194-1 .195-1 .277L32 11l-2 .583-.944.195-1.556.194L26 12m291 14l.278 1.5.194.556.722 1.944.806 1.944.194.556L320 34l1.5-.083.556-.14 1-.166.944-.222 2-.306 1-.027 1 .027 1.944.306 1.556.361 1.5.25v7l-1.5.028-1.556.222-.944.222-2 .722-1 .445-2 .917-1 .527-2 1.334-1.917 1.666L317.472 49l-.611 1-.583 1-.417 1-.694 2-.306 1-.472 2-.306 2-.055 1-.028 2v2l.028 1 .055 1 .389 2 .806 2 1.194 1.972.778.945 1.778 1.583L321 75.583l2 .723 1 .277 2 .334 2 .083h16V37l-.028-2-.055-1-.334-2-.305-1-.389-1-1.195-1.972-.805-.945L339 25.5l-2-1.083-2-.723-1-.277-2-.334-2-.083-2 .083-1 .14-2 .388-2 .389-2 .472-1.944.722-.556.306-1.5.5M212 61h-12l.083 2.056.389 1.944.806 2 1.194 2 .778.972.833.917L206 72.36l1 .528 1 .417 1 .36 1 .334 2 .583 1 .195 1 .139 2 .083 2-.028 1-.055 2-.306 1-.222 2-.389 1-.222 1-.278 2-.917 1.917-1.277 1.583-1.528 1-1.806.417-1.972.055-1 .028-2v-1l-.083-2-.167-1-.25-1-1-1.917-1.583-1.666-.945-.723-.972-.666-2-1.14-1-.471-1-.39-2-.61-2-.361-1-.112-1-.194-1-.222-1-.39-1-.416-2-1.194-1.889-1.611L209.722 44l-.389-.944-.305-1.556L209 40l2.056-.722 1-.195.944-.11 1.972.61 1.695 1.445.972 1.472L218 44h12l-.25-1.5-.167-.556-.277-1-.723-1.944-1.083-2-1.583-1.972-.945-.945-1.972-1.61-1-.612-2-1-1-.389-1-.222-1-.167-2-.083h-5l-2 .083-2 .39-1 .388-2 .917-1.917 1.083-.861.611-1.5 1.611-.611.945-.472.972-.528 2-.111 2 .028 2 .055 1 .389 2 .389 1 .417 1 1.194 1.917.778.833.833.778L203 52.722l2 .89 1 .36 2 .64 2 .527 1 .25 1 .305 2 .64 2 .777 1 .528.972.667 1.695 1.722.889 1.972v1l-.306.972-.583.917-.778.75-.917.528h-1.944l-.945-.528-1.583-1.611-.583-.972-.389-.556L212 61m-88-30l-1.5.722-.556.028-1 .194-1.944.14-1.944.305-1.556.361-1.5.25v16l.028 2 .055 1 .306 2 .222 1 .306 2 .055 1 .028 2v16h12V59l-.028-2-.055-1-.306-2-.222-1-.306-2-.055-.944-.028-1V47l1.5-.25 1.556-.361 1.944-.222 2 .333 1 .444.972.556.917.75 1.389 1.778.694 1.972.417 2 .222 1 .333 2 .112 1 .333 2 .222 1 .306 2 .055 1 .028 2v10h13l-.611-2.056-.25-1-.278-.944-.472-2-.195-1-.388-2-.417-2-.306-2-.166-2-.306-2-.25-1-.222-1-.278-1-.222-1-.417-2-.222-2-.25-2-.222-1-.361-1-.806-2-1-1.972-.667-.945-1.722-1.583-.972-.556-1-.444-2-.417-2-.083h-3l-2 .028-1 .055-2 .306-.944.222-1 .167-.556.139L125 40v-4l-.028-1.972-.028-.917-.194-.805-.028-.528L124 31m44 1.472l-1 .39-1 .416-1 .555-2 1.195-1.972 1.389-.945.805-.861.861-.805.945-.723.972-1.305 2-.556 1-.972 2-.417 1-.277 1-.528 2-.25 1-.306 2-.083 2v2l.083 2 .306 2 .25 1 .5 2 .25 1 .694 2 1 2 1.334 2 .805.972.861.945 1.917 1.61 2 1.223 1 .472 2 .917 1 .389 2 .389 2 .083h4l2-.083 1-.14 2-.471 2-.695 1-.444 1-.445 2-1.194 2-1.611L189.972 70l.945-1 1.583-2 1.083-2 .389-1 .639-2 .25-1 .5-2 .25-1 .306-2 .055-1-.055-2-.306-2-.25-1-.222-1-.583-2-.834-2-.555-1-1.195-2-1.389-1.972-.805-.945-.861-.86L187 36.693l-1-.666-1-.64-1-.555-2-1.055-1-.528-1-.389-1-.389-1-.222-1-.167-2-.083h-3l-2 .083-1 .167-1 .222M235 34v3.056l.028 1.944.055 1 .306 2 .222 1 .306 2 .083 2v3l.028 2 .055 1 .306 2 .222 1 .306 2 .055 1 .028 2 .028 1 .055 1 .306 2 .25 1 .25 1 .805 1.972.639.945 1.695 1.583.972.556 1 .444 2 .417 2 .055 1-.055 2-.306 1-.222 2-.333 1-.112 1.944-.36L258 71l.361 1.139.972.583.778.167L262 73h7l.083-1.5.139-.556.167-1 .222-.944.306-2 .055-1 .028-2 .028-2 .055-1 .306-2 .222-1 .306-2 .055-1 .028-2v-3l.083-2 .306-2 .222-1 .306-2 .055-1 .028-1v-7h-12v5l-.028 2-.055 1-.306 2-.222 1-.306 2-.083 2v3l-.028 2-.055 1-.306 2-.222 1-.306 2-.055.944-.028 1V64l-1.5.25-.556.139-1 .222-1.944.278-2-.222-1.972-1-.917-.778-.778-.917-.611-.972-.389-1-.305-2-.028-1v-9l.028-1 .055-1 .306-2 .222-1 .306-2 .055-1 .028-2v-4h-12M84 35.417l-2 .61-2 .806-1 .445-2 1.194-1 .778-1.972 1.778-.945.972-1.666 2-1.334 2-.527 1-.917 2-.445 1-.722 2-.222 1-.167 1L67 56l.028 2 .055 1 .306 2 .25 1 .5 2 .25 1 .694 2 1 2 .64 1 1.5 2 1.805 1.917.972.833 1 .778 1 .61 1 .612 1 .472 2 .945 1 .444 2 .695 1 .277 2 .334 1 .055L89 80l2-.083 2-.306 1-.222L96 79l1-.222 1-.278 2-.972 1.972-1.39 1.806-1.527 1.528-1.694.666-.945L107.167 70l.555-1 .889-2 .361-1 .611-2 .334-2 .083-2v-2l-.028-2-.055-1-.306-2-.472-2-.306-1-.277-1-.417-1-.917-2-1.083-2-.611-1-1.611-1.972-.945-.945-1.972-1.61-1-.612-2-1.083-2-.917-1-.389-2-.389L91 35h-3l-2 .083-2 .334M289 62V48l.028-2 .305-1.972.389-.917.611-.778.778-.61L293 41.11h2l1 .222.972.39 1.722 1.388L299.889 45l.389 1 .305 1 .334 2 .083 2v3l-.028 2-.055 1-.389 2-.389.972-.417.945-1.194 1.583-1.611 1-1.917.389h-1l-1.944-.333-1-.417-.556-.167L289 62M172 42.25l2-.222h1l1 .055 2 .417 1.917 1 .833.75.778.833L182.722 47l.806 2 .222 1 .167 1 .083 2v1l-.083 2-.167 1-.222 1-.389 1-.417 1-1.194 1.972-.778.945-1.778 1.583-.972.556-2 .694-2 .222h-1l-2-.305-.972-.39-1.778-1.388L166.917 62l-.5-1-.723-2-.277-1-.334-2-.083-2 .083-2 .389-2 .389-1 .917-2 .472-.972 1.222-1.778 1.611-1.306L172 42.25m-85 2l2-.139 2 .389 1.917 1 1.61 1.583.612.945L96.222 50l.917 2 .389 1 .389 2 .055 1-.055 2-.306 2-.5 2-.722 2-.5.972-1.306 1.778-1.666 1.306L91 68.75l-2 .194-1-.027-2-.417-1.972-1-1.778-1.583-.778-.945-.61-.972-.584-1-.806-2-.389-2L79 57v-1l.083-2 .167-1 .222-1 .39-1 1-2 .61-.972 1.611-1.778.945-.75 1.972-1 1-.25M334 50v2.056l-.028 1-.055.944-.306 2-.222 1-.306 2-.055 1-.028 1v8h-1.5l-1.556-.028-.944-.083-1.972-.611-1.778-1.39-.75-.916-1-1.972-.417-2v-2l.334-2 .611-2 .389-1 1.083-1.972 1.583-1.695 1.917-1 1-.222.944-.083 1-.028H334m20 24l-.5 1.5-.333.556-.417 1-.5.944-.778 1.944-.389 1.556L351 83l1.5.694.556.39 1 .61L356 85.89l1 .444 1 .25h1l2-.666.944-.528 1-.5.556-.361L365 84l-.028-1.5-.194-1.556-.195-.944-.277-1-.667-1.944-.472-1-.195-.556L362 74h-8z" fill="#fff"/></svg>
